icon/ir/piggy-bank.svg

<svg stroke-width="1.5" viewBox="0 0 24 24" fill="none" xmlns="http://www.w3.org/2000/svg" height="1em" width="1em">
  <path d="M14.5 8.5C13.7193 8.29761 12.6344 8 11.7647 8C7.47636 8 4 10.6676 4 13.9583C4 15.8493 5.14794 17.5345 6.93824 18.6261L6.45318 20.2259C6.33635 20.6112 6.62471 21 7.02736 21H8.79147C8.92135 21 9.04773 20.9579 9.15161 20.8799L10.5462 19.8333H12.9831L14.3777 20.8799C14.4816 20.9579 14.608 21 14.7379 21H16.502C16.9046 21 17.193 20.6112 17.0761 20.2259L16.5911 18.6261C17.6577 17.9758 18.4963 17.1147 19 16.125" stroke="currentColor" stroke-linecap="round" stroke-linejoin="round"/>
  <path d="M14.5 8.5L19 7L18.916 10.6283L21 11.5V15L19.0741 16" stroke="currentColor" stroke-linecap="round" stroke-linejoin="round"/>
  <path d="M15.5 13C15.2239 13 15 12.7761 15 12.5C15 12.2239 15.2239 12 15.5 12C15.7761 12 16 12.2239 16 12.5C16 12.7761 15.7761 13 15.5 13Z" fill="black" stroke="currentColor" stroke-linecap="round" stroke-linejoin="round"/>
  <path d="M2 10C2 10 2 12.4 4 13" stroke="currentColor" stroke-linecap="round" stroke-linejoin="round"/>
  <path d="M12.8008 7.75296C12.9298 7.38131 13 6.98136 13 6.56472C13 4.59598 11.433 3 9.5 3C7.567 3 6 4.59598 6 6.56472C6 7.50638 6.35849 8.36275 6.94404 9" stroke="currentColor" stroke-linejoin="round"/>
</svg>

<svg width="24" height="24" stroke-width="1.5" fill="none" xmlns="http://www.w3.org/2000/svg"><path d="M14.5 8.5c-.78-.202-1.866-.5-2.735-.5C7.476 8 4 10.668 4 13.958c0 1.891 1.148 3.577 2.938 4.668l-.485 1.6a.6.6 0 0 0 .574.774h1.764a.6.6 0 0 0 .36-.12l1.395-1.047h2.437l1.395 1.047a.6.6 0 0 0 .36.12h1.764a.6.6 0 0 0 .574-.774l-.485-1.6c1.067-.65 1.905-1.511 2.409-2.501M14.5 8.5 19 7l-.084 3.628L21 11.5V15l-1.926 1" stroke="currentColor" stroke-linecap="round" stroke-linejoin="round"/><path d="M15.5 13a.5.5 0 1 1 0-1 .5.5 0 0 1 0 1Z" fill="#000" stroke="currentColor" stroke-linecap="round" stroke-linejoin="round"/><path d="M2 10s0 2.4 2 3" stroke="currentColor" stroke-linecap="round" stroke-linejoin="round"/><path d="M12.8 7.753c.13-.372.2-.772.2-1.188C13 4.596 11.433 3 9.5 3S6 4.596 6 6.565c0 .941.358 1.798.944 2.435" stroke="currentColor" stroke-linejoin="round"/></svg>
